X:09
T:Salt Creek
S:Jim Coon to CoMandoList TOW
M:4/4
L:1/8
Q:212
K:G
[|:"G"G2GG G2GA|"G"BGAB "C"c2cB|"F"AG_FG AG_FG|"F"AG_FE "D7"D4|!
"G"G2GG G2GA|"G"BGAB "C"c2dc|"D7"Bdef gedc|"D7"BGAF "G"G4:|!
|:"G"g2gg g2ga|"G"b2a2 gagd|"F"_fg_fe de_fg|"F"_fedc BAG2|!
"G"g2gg g2ga|"G"b2a2 gagd|"F"_fg_fe dedc|"D7"BGAF "G"G4:|!
